assets/icons/icon_sensor.svg

<svg width="30" height="30" viewBox="0 0 30 30" fill="none" xmlns="http://www.w3.org/2000/svg">
<path d="M8.30078 8.8468C8.30136 8.84588 8.3013 8.84461 8.30176 8.84387L8.09766 8.65833C8.09965 8.65606 8.10152 8.65371 8.10352 8.65149L8.11719 8.63782C8.1193 8.63586 8.12392 8.63074 8.13086 8.62512C8.26585 8.48633 8.40134 8.43312 8.52637 8.42004L8.52734 8.41907C8.67495 8.40402 8.84988 8.44093 9.0166 8.54211L9.13379 8.6261C9.24353 8.71782 9.32987 8.83269 9.38379 8.95911C9.45211 9.11925 9.47897 9.32106 9.40527 9.56848C9.18936 10.2932 8.91785 11.2059 8.65039 12.1046L7.89258 14.6476L7.66406 15.4152L11.7734 17.5001L12.2666 16.9806C13.5596 15.6157 15.4272 13.4088 17.0781 11.4581L17.0967 11.4376V11.4366C17.927 10.4556 18.7036 9.53818 19.3359 8.81067C19.9896 8.05851 20.4345 7.57368 20.626 7.40735C20.714 7.33059 20.8463 7.27876 21.0391 7.29407C21.2363 7.30998 21.455 7.396 21.6289 7.53821C21.8015 7.67923 21.8871 7.83802 21.9102 7.97571C21.9183 8.02438 21.9249 8.10704 21.8955 8.22083C21.8672 8.33001 21.8088 8.45648 21.7031 8.60168L21.3506 9.07043C20.3205 10.4126 17.9682 13.3434 16.9111 14.6437L16.3535 15.3273L22.0498 20.8282L22.2686 21.0402L22.0352 21.2365L14.3125 27.7384L14.168 27.8605L14.002 27.7687L3.94531 22.2198L3.75586 22.1154L3.8125 21.9064C4.39566 19.7645 5.20626 16.9066 5.99707 14.3595C6.45362 12.8887 6.90026 11.5331 7.29004 10.4825C7.48513 9.95633 7.66123 9.51903 7.81348 9.18762C7.95535 8.87886 8.04244 8.74009 8.06738 8.70032L8.30078 8.8468ZM8.30078 8.8468L8.27246 8.82922L8.06641 8.70129C8.06478 8.70389 8.06265 8.7067 8.06055 8.71008C8.05785 8.71518 8.05463 8.7234 8.05078 8.73254C8.04985 8.73476 8.03584 8.76728 8.03125 8.81067C8.02941 8.82816 8.0225 8.89725 8.06348 8.9718C8.0867 9.01402 8.12374 9.05303 8.17383 9.0802C8.19438 9.03963 8.21069 9.00402 8.22656 8.97473L8.30078 8.8468ZM19.3682 5.9552C20.4653 5.00381 21.9725 5.33821 22.8447 6.0509C23.3094 6.43073 23.6922 6.98054 23.8057 7.65833C23.9222 8.35447 23.736 9.07454 23.2568 9.73254C22.6544 10.5598 20.5056 13.2513 19.1152 14.9747L18.957 15.17L19.1377 15.3448L23.3848 19.4464C24.3214 20.3514 24.2698 21.8683 23.2734 22.7072L15.5498 29.2081C14.8541 29.7937 13.8702 29.8905 13.0742 29.4513L1.50977 23.0704L1.7041 22.3448C2.29384 20.1393 3.23998 16.7607 4.16211 13.7902C4.62273 12.3065 5.08092 10.9127 5.48828 9.81458C5.69161 9.2665 5.88671 8.77915 6.06738 8.38586C6.23345 8.02424 6.43069 7.64292 6.65527 7.38782C7.62307 6.28901 9.03116 6.30363 10.0127 6.89856C10.9932 7.49279 11.6627 8.72232 11.2471 10.1173C11.0319 10.8397 10.759 11.7535 10.4912 12.6534C10.3312 13.191 10.1734 13.7242 10.0293 14.2081L9.96387 14.4279L10.168 14.5314L11.1719 15.0411L11.3584 15.1359L11.5 14.9806C12.6917 13.667 14.2159 11.8665 15.625 10.2013L15.6387 10.1857C16.4632 9.21146 17.2456 8.28653 17.8857 7.54993C18.508 6.83403 19.0519 6.22948 19.3682 5.9552Z" fill="white" stroke="white" stroke-width="0.550371"/>
<path d="M20.7793 0.355591C21.7407 0.293936 22.7049 0.427488 23.6133 0.748169C24.5218 1.06885 25.3558 1.5703 26.0654 2.2218C26.7751 2.87332 27.3462 3.66142 27.7432 4.53918C28.14 5.41698 28.3554 6.3661 28.376 7.32922C28.3966 8.29238 28.2215 9.24978 27.8623 10.1437C27.5031 11.0376 26.9674 11.8501 26.2861 12.5314C25.9109 12.9067 25.302 12.9066 24.9268 12.5314C24.5515 12.1562 24.5514 11.5473 24.9268 11.172C25.4245 10.6742 25.8166 10.0811 26.0791 9.42786C26.3416 8.77438 26.4691 8.07416 26.4541 7.37024C26.4391 6.6664 26.2823 5.97267 25.9922 5.33118C25.7021 4.68954 25.2843 4.11304 24.7656 3.63684C24.2469 3.16077 23.6375 2.79404 22.9736 2.55969C22.3098 2.32532 21.6051 2.22851 20.9023 2.27356C20.1997 2.31863 19.5134 2.50513 18.8848 2.82239C18.2561 3.13967 17.6977 3.58068 17.2441 4.11926C16.9023 4.52499 16.2964 4.57712 15.8906 4.23547C15.4848 3.89361 15.4325 3.28685 15.7744 2.88098C16.3951 2.14417 17.1586 1.54066 18.0186 1.10657C18.8787 0.672454 19.8179 0.417253 20.7793 0.355591Z" fill="white" stroke="white" stroke-width="0.550371"/>
</svg>

<svg xmlns="http://www.w3.org/2000/svg" width="30" height="30" fill="none" viewBox="0 0 30 30"><path fill="#fff" stroke="#fff" stroke-width=".55" d="m8.3 8.847.002-.003-.204-.186.006-.007.013-.013.014-.013a.63.63 0 0 1 .395-.205h.001a.8.8 0 0 1 .49.122l.117.084c.11.092.196.207.25.333.068.16.095.362.021.61l-.755 2.536-.757 2.543-.229.767 4.11 2.085.493-.52c1.293-1.364 3.16-3.571 4.811-5.522l.019-.02v-.001a286 286 0 0 1 2.239-2.626c.654-.752 1.099-1.237 1.29-1.404.088-.076.22-.128.413-.113.197.016.416.102.59.244a.74.74 0 0 1 .281.438.6.6 0 0 1-.015.245c-.028.109-.086.235-.192.38l-.352.47c-1.03 1.342-3.383 4.272-4.44 5.573l-.558.683 5.697 5.501.219.212-.234.197-7.722 6.501-.145.122-.166-.091-10.057-5.55-.19-.104.058-.209c.583-2.141 1.393-5 2.184-7.546.457-1.471.903-2.827 1.293-3.877.195-.527.371-.964.523-1.295.142-.31.23-.448.254-.488zm0 0-.028-.018-.206-.128-.005.01q-.004.007-.01.022a.274.274 0 0 0 .123.348q.03-.062.053-.106zm11.068-2.892c1.097-.951 2.605-.617 3.477.096.464.38.847.93.96 1.607.117.696-.069 1.417-.548 2.075-.603.827-2.751 3.518-4.142 5.242l-.158.195.18.175 4.248 4.101a2.197 2.197 0 0 1-.112 3.261l-7.723 6.501a2.2 2.2 0 0 1-2.476.243L1.51 23.071l.194-.726c.59-2.206 1.536-5.584 2.458-8.555.46-1.483.919-2.877 1.326-3.975.204-.548.399-1.036.58-1.43.165-.36.363-.742.587-.997.968-1.099 2.376-1.084 3.358-.49.98.595 1.65 1.824 1.234 3.22l-.756 2.535-.462 1.555-.065.22.204.103 1.004.51.186.095.142-.155c1.192-1.314 2.716-3.114 4.125-4.78l.014-.015c.824-.975 1.607-1.9 2.247-2.636.622-.716 1.166-1.32 1.482-1.595Z"/><path fill="#fff" stroke="#fff" stroke-width=".55" d="M20.78.356a7.141 7.141 0 0 1 5.506 12.175.961.961 0 0 1-1.36-1.359 5.22 5.22 0 1 0-7.682-7.053.96.96 0 1 1-1.47-1.238A7.14 7.14 0 0 1 20.78.356Z"/></svg>
